web/packages/design/src/ResourceIcon/assets/redshift.svg

<svg width="72" height="72" viewBox="0 0 72 72" fill="none" xmlns="http://www.w3.org/2000/svg">
<path d="M63.1671 10.1543L68.618 12.7887V59.0772L63.1671 61.7114L54.5264 36L63.1671 10.1543Z" fill="#5294CF"/>
<path d="M8.61192 10.1543L3.16113 12.7887V59.0772L8.61192 61.7114L22.2532 36L8.61192 10.1543Z" fill="#205B99"/>
<path d="M35.8848 55.0536L63.1675 61.6924V10.1543L35.8848 16.8025V55.0536Z" fill="#205B99"/>
<path d="M35.8843 55.0536L8.61133 61.6924V10.1543L35.8843 16.8025V55.0536Z" fill="#5294CF"/>
<path d="M42.4363 72L52.8591 66.7984V5.2017L42.4363 0L32.0713 34.2372L42.4363 72Z" fill="#5294CF"/>
<path d="M29.3405 72L18.918 66.7984V5.2017L29.3405 0L38.6136 36L29.3405 72Z" fill="#205B99"/>
<path d="M42.437 0H29.3418V72H42.437V0Z" fill="#2E73B8"/>
</svg>

<svg xmlns="http://www.w3.org/2000/svg" width="72" height="72" fill="none" viewBox="0 0 72 72"><path fill="#5294cf" d="m63.167 10.154 5.451 2.635v46.288l-5.45 2.634L54.525 36z"/><path fill="#205b99" d="m8.612 10.154-5.45 2.635v46.288l5.45 2.634L22.253 36zm27.273 44.9 27.283 6.638V10.154l-27.283 6.648z"/><path fill="#5294cf" d="M35.884 55.054 8.611 61.692V10.154l27.273 6.648z"/><path fill="#5294cf" d="m42.436 72 10.423-5.202V5.202L42.436 0 32.071 34.237z"/><path fill="#205b99" d="m29.34 72-10.422-5.202V5.202L29.341 0l9.273 36z"/><path fill="#2e73b8" d="M42.437 0H29.342v72h13.095z"/></svg>
